public/icons/polkadot.svg

<svg width="108" height="24" viewBox="0 0 108 24" fill="none" xmlns="http://www.w3.org/2000/svg">
<g clip-path="url(#clip0_88_1603)">
<path d="M33.5411 3.73895C32.2766 3.73895 31.058 3.89783 30.5617 4.03214C29.8394 4.23524 29.6593 4.55135 29.5233 5.20651L26.657 18.4326C26.6111 18.7028 26.5669 18.9289 26.5669 19.1549C26.5669 19.81 26.996 20.2375 27.6954 20.2375C28.4636 20.2375 28.7797 19.7413 28.9369 18.9731L29.7493 15.2043C30.3128 15.2714 31.058 15.3402 32.1194 15.3402C36.7923 15.3402 39.7029 12.8129 39.7029 8.99826C39.7029 5.65694 37.3771 3.73895 33.5411 3.73895ZM32.0064 13.1733C31.2841 13.1733 30.719 13.1503 30.2014 13.0832L31.7132 6.06314C32.1865 5.99598 32.8876 5.90426 33.6099 5.90426C36.0929 5.90426 37.3574 7.07864 37.3574 9.01955C37.3558 11.5026 35.5492 13.1733 32.0064 13.1733Z" fill="white"/>
<path d="M107.074 15.8807C106.691 15.8807 106.442 16.1068 105.969 16.626C105.134 17.4842 104.614 17.9576 103.961 17.9576C103.374 17.9576 103.058 17.4842 103.058 16.7161C103.058 16.2869 103.148 15.7677 103.261 15.2043L104.097 11.2766H106.603C107.392 11.2766 107.867 10.8245 107.867 10.0121C107.867 9.56006 107.574 9.22265 106.898 9.22265H104.547L104.953 7.39475C104.999 7.1245 105.043 6.87554 105.043 6.64951C105.043 6.01728 104.614 5.56522 103.915 5.56522C103.17 5.56522 102.832 6.0615 102.673 6.82968L102.154 9.22265H101.093C100.28 9.22265 99.8071 9.67471 99.8071 10.4871C99.8071 10.9392 100.123 11.2766 100.8 11.2766H101.725L100.89 15.1584C100.8 15.5875 100.687 16.2869 100.687 17.0092C100.687 18.8371 101.635 20.1688 103.666 20.1688C104.84 20.1688 105.877 19.5824 106.668 18.8814C107.436 18.2049 108 17.3696 108 16.8274C108 16.3099 107.594 15.8807 107.074 15.8807Z" fill="white"/>
<path d="M55.1629 5.07059C55.1629 4.41543 54.7108 3.9863 54.0114 3.9863C53.2662 3.9863 52.9288 4.48258 52.7699 5.25076L49.9494 18.3638C49.8823 18.6341 49.8364 18.8601 49.8364 19.0861C49.8364 19.7413 50.2885 20.1688 50.9649 20.1688C51.7331 20.1688 52.0705 19.6725 52.2294 18.9043L55.0499 5.7929C55.0957 5.52101 55.1629 5.29662 55.1629 5.07059Z" fill="white"/>
<path d="M95.4502 8.99662C91.8386 8.99662 89.3785 12.5853 89.3785 15.9937C89.3785 16.0576 89.3802 16.1215 89.3818 16.1837C88.8151 17.0436 88.0911 17.9347 87.5948 17.9347C87.2345 17.9347 87.0986 17.5956 87.0986 17.0764C87.0986 16.4442 87.2787 15.3828 87.4818 14.4574L89.3556 5.78961C89.4014 5.51935 89.4457 5.29332 89.4457 5.06729C89.4457 4.41213 89.0165 3.983 88.3172 3.983C87.549 3.983 87.2345 4.47929 87.0756 5.24746L86.0601 9.94169C85.518 9.37825 84.7269 8.99334 83.5312 8.99334C81.1333 8.99334 78.7207 10.8393 77.7805 13.6712C76.7454 16.3475 75.82 17.9314 75.0895 17.9314C74.8192 17.9314 74.6603 17.7053 74.6603 17.3221C74.6603 16.1936 75.2926 13.4402 75.5628 12.1086C75.6529 11.6124 75.6988 11.4092 75.6988 11.1161C75.6988 10.1235 74.051 8.94912 71.907 8.94912C69.4272 8.94912 67.1817 10.5199 66.0564 12.8522C64.3841 15.807 62.8494 17.9314 62.0894 17.9314C61.7504 17.9314 61.6374 17.5022 61.5473 17.096L60.9855 13.9857L64.4382 11.1652C64.7543 10.8949 65.1605 10.51 65.1605 10.0138C65.1605 9.40446 64.7543 8.99826 64.145 8.99826C63.6929 8.99826 63.3097 9.26851 62.9264 9.58463L57.7359 13.8727L59.4737 5.79288C59.5196 5.52263 59.5867 5.2966 59.5867 5.07057C59.5867 4.41541 59.1346 3.98628 58.4353 3.98628C57.69 3.98628 57.3526 4.48256 57.1937 5.25074L54.3733 18.3638C54.3061 18.634 54.2603 18.8601 54.2603 19.0861C54.2603 19.7413 54.7123 20.1688 55.3888 20.1688C56.1569 20.1688 56.4944 19.6725 56.6532 18.9043L57.0152 17.2123L59.1363 15.4975L59.6555 18.1148C59.8586 19.1533 60.4008 20.1688 61.7995 20.1688C63.1917 20.1688 64.2875 18.8977 65.3849 17.1796C65.7174 18.9796 66.9982 20.1688 68.7753 20.1688C70.559 20.1688 71.7776 19.1074 72.5671 17.6857V17.7316C72.5671 19.1991 73.3123 20.1688 74.621 20.1688C75.8052 20.1688 76.788 19.4546 77.6659 17.9379C78.1638 19.2597 79.2776 20.1688 80.827 20.1688C82.6549 20.1688 83.9636 19.0632 84.7989 17.5285V17.6644C84.7989 19.2892 85.6113 20.1704 86.943 20.1704C88.119 20.1704 89.1181 19.4874 89.9714 18.3769C90.62 19.4874 91.783 20.1704 93.3537 20.1704C96.9653 20.1704 99.4254 16.5817 99.4254 13.1503C99.4238 10.7344 97.9562 8.99662 95.4502 8.99662ZM72.9487 13.5795C72.2936 16.3999 70.8948 18.0034 69.3142 18.0034C68.2529 18.0034 67.6665 17.191 67.6665 15.9724C67.6665 13.5795 69.4043 11.0063 71.7285 11.0063C72.4279 11.0063 72.97 11.2094 73.4434 11.5026L72.9487 13.5795ZM85.5196 12.3838C84.7973 15.7022 83.1496 18.0034 81.3446 18.0034C80.352 18.0034 79.764 17.2353 79.764 15.9724C79.764 13.5582 81.4347 11.0522 83.6688 11.0522C84.527 11.0522 85.1806 11.3454 85.6556 11.7286L85.5196 12.3838ZM93.6223 18.0034C92.3136 18.0034 91.7715 17.0551 91.7715 15.8594C91.7715 13.6696 93.2833 11.1652 95.18 11.1652C96.4887 11.1652 97.0308 12.1135 97.0308 13.3092C97.0308 15.5204 95.519 18.0034 93.6223 18.0034Z" fill="white"/>
<path d="M45.3222 8.99664C41.7106 8.99664 39.2505 12.5853 39.2505 15.9938C39.2505 18.431 40.718 20.1688 43.2224 20.1688C46.834 20.1688 49.2941 16.5801 49.2941 13.1487C49.2941 10.7345 47.8265 8.99664 45.3222 8.99664ZM43.4943 18.0035C42.1856 18.0035 41.6435 17.0551 41.6435 15.8595C41.6435 13.6696 43.1553 11.1652 45.0519 11.1652C46.3606 11.1652 46.9028 12.1136 46.9028 13.3092C46.9011 15.5204 45.3893 18.0035 43.4943 18.0035Z" fill="white"/>
<path d="M10.8595 5.13773C13.1599 5.13773 15.0247 4.05316 15.0247 2.71527C15.0247 1.37739 13.1599 0.292816 10.8595 0.292816C8.55915 0.292816 6.69434 1.37739 6.69434 2.71527C6.69434 4.05316 8.55915 5.13773 10.8595 5.13773Z" fill="#E6007A"/>
<path d="M10.8595 23.3905C13.1599 23.3905 15.0247 22.3059 15.0247 20.9681C15.0247 19.6302 13.1599 18.5456 10.8595 18.5456C8.55915 18.5456 6.69434 19.6302 6.69434 20.9681C6.69434 22.3059 8.55915 23.3905 10.8595 23.3905Z" fill="#E6007A"/>
<path d="M5.05505 8.49099C6.20524 6.49888 6.19777 4.34129 5.03838 3.6719C3.87898 3.0025 2.0067 4.07478 0.856519 6.0669C-0.293666 8.05902 -0.286201 10.2166 0.873192 10.886C2.03258 11.5554 3.90487 10.4831 5.05505 8.49099Z" fill="#E6007A"/>
<path d="M20.8603 17.6163C22.0105 15.6242 22.0037 13.4669 20.8451 12.798C19.6865 12.1291 17.8148 13.2017 16.6646 15.1938C15.5144 17.1859 15.5213 19.3432 16.6799 20.0121C17.8385 20.681 19.7101 19.6084 20.8603 17.6163Z" fill="#E6007A"/>
<path d="M5.03887 20.0115C6.19826 19.3421 6.20572 17.1846 5.05554 15.1924C3.90536 13.2003 2.03307 12.128 0.87368 12.7974C-0.285712 13.4668 -0.293177 15.6244 0.857007 17.6165C2.00719 19.6087 3.87947 20.6809 5.03887 20.0115Z" fill="#E6007A"/>
<path d="M20.846 10.8865C22.0047 10.2176 22.0115 8.06035 20.8613 6.06823C19.7111 4.07611 17.8395 3.00347 16.6809 3.67241C15.5222 4.34135 15.5154 6.49857 16.6656 8.49069C17.8158 10.4828 19.6874 11.5555 20.846 10.8865Z" fill="#E6007A"/>
</g>
<defs>
<clipPath id="clip0_88_1603">
<rect width="108" height="23.0993" fill="white" transform="translate(0 0.292816)"/>
</clipPath>
</defs>
</svg>

<svg width="108" height="24" fill="none" xmlns="http://www.w3.org/2000/svg"><g clip-path="url(#a)"><path d="M33.541 3.739c-1.264 0-2.483.159-2.98.293-.722.203-.902.52-1.038 1.175l-2.866 13.226c-.046.27-.09.496-.09.722 0 .655.429 1.082 1.128 1.082.769 0 1.085-.496 1.242-1.264l.812-3.769c.564.067 1.309.136 2.37.136 4.673 0 7.584-2.527 7.584-6.342 0-3.341-2.326-5.259-6.162-5.259Zm-1.535 9.434c-.722 0-1.287-.023-1.805-.09l1.512-7.02a13.659 13.659 0 0 1 1.897-.159c2.483 0 3.747 1.175 3.747 3.116-.001 2.483-1.808 4.153-5.35 4.153ZM107.074 15.88c-.383 0-.632.227-1.105.746-.835.858-1.355 1.332-2.008 1.332-.587 0-.903-.474-.903-1.242 0-.43.09-.948.203-1.512l.836-3.927h2.506c.789 0 1.264-.452 1.264-1.265 0-.452-.293-.79-.969-.79h-2.351l.406-1.827c.046-.27.09-.52.09-.745 0-.633-.429-1.085-1.128-1.085-.745 0-1.083.496-1.242 1.265l-.519 2.393h-1.061c-.813 0-1.286.452-1.286 1.264 0 .452.316.79.993.79h.925l-.835 3.881a9.417 9.417 0 0 0-.203 1.851c0 1.828.948 3.16 2.979 3.16 1.174 0 2.211-.587 3.002-1.288.768-.676 1.332-1.511 1.332-2.054a.934.934 0 0 0-.926-.946ZM55.163 5.07c0-.655-.452-1.084-1.152-1.084-.745 0-1.082.497-1.241 1.265l-2.82 13.113c-.068.27-.114.496-.114.722 0 .655.453 1.083 1.129 1.083.768 0 1.105-.497 1.264-1.265l2.82-13.111c.047-.272.114-.496.114-.722ZM95.45 8.997c-3.611 0-6.072 3.588-6.072 6.997 0 .064.002.128.004.19-.567.86-1.29 1.75-1.787 1.75-.36 0-.496-.338-.496-.858 0-.632.18-1.693.383-2.619l1.874-8.667c.045-.27.09-.497.09-.723 0-.655-.43-1.084-1.129-1.084-.768 0-1.082.496-1.241 1.264L86.06 9.942c-.542-.564-1.333-.949-2.529-.949-2.398 0-4.81 1.846-5.75 4.678-1.036 2.677-1.961 4.26-2.692 4.26-.27 0-.429-.226-.429-.609 0-1.128.633-3.882.903-5.213.09-.497.136-.7.136-.993 0-.992-1.648-2.167-3.792-2.167-2.48 0-4.725 1.57-5.85 3.903-1.673 2.955-3.208 5.08-3.968 5.08-.339 0-.452-.43-.542-.836l-.561-3.11 3.452-2.82c.316-.271.722-.656.722-1.152 0-.61-.406-1.016-1.015-1.016-.452 0-.835.27-1.219.587l-5.19 4.288 1.738-8.08c.046-.27.113-.496.113-.722 0-.656-.452-1.085-1.152-1.085-.745 0-1.082.497-1.241 1.265l-2.82 13.113c-.068.27-.114.496-.114.722 0 .655.452 1.083 1.129 1.083.768 0 1.105-.497 1.264-1.265l.362-1.692 2.121-1.714.52 2.617c.203 1.038.745 2.054 2.144 2.054 1.392 0 2.487-1.271 3.585-2.99.332 1.8 1.613 2.99 3.39 2.99 1.784 0 3.003-1.062 3.792-2.483v.046c0 1.467.745 2.437 2.054 2.437 1.184 0 2.167-.714 3.045-2.231.498 1.322 1.612 2.23 3.161 2.23 1.828 0 3.137-1.105 3.972-2.64v.136c0 1.625.812 2.506 2.144 2.506 1.176 0 2.175-.683 3.028-1.793.649 1.11 1.812 1.793 3.383 1.793 3.611 0 6.071-3.588 6.071-7.02-.001-2.416-1.469-4.153-3.975-4.153ZM72.95 13.579c-.655 2.82-2.054 4.424-3.635 4.424-1.061 0-1.647-.812-1.647-2.03 0-2.394 1.737-4.967 4.061-4.967.7 0 1.242.203 1.715.497l-.494 2.076Zm12.57-1.195c-.722 3.318-2.37 5.62-4.174 5.62-.993 0-1.581-.769-1.581-2.032 0-2.414 1.67-4.92 3.905-4.92.858 0 1.512.293 1.987.677l-.136.655Zm8.103 5.62c-1.308 0-1.85-.949-1.85-2.145 0-2.19 1.511-4.694 3.408-4.694 1.309 0 1.85.949 1.85 2.144 0 2.211-1.511 4.694-3.408 4.694ZM45.322 8.997c-3.611 0-6.072 3.588-6.072 6.997 0 2.437 1.468 4.175 3.972 4.175 3.612 0 6.072-3.589 6.072-7.02 0-2.414-1.467-4.152-3.972-4.152Zm-1.828 9.006c-1.308 0-1.85-.948-1.85-2.143 0-2.19 1.511-4.695 3.408-4.695 1.309 0 1.85.949 1.85 2.144 0 2.211-1.513 4.694-3.408 4.694Z" fill="#fff"/><path d="M10.86 5.138c2.3 0 4.165-1.085 4.165-2.423S13.16.293 10.86.293 6.694 1.377 6.694 2.715 8.56 5.138 10.86 5.138ZM10.86 23.39c2.3 0 4.165-1.084 4.165-2.422s-1.865-2.422-4.165-2.422-4.166 1.084-4.166 2.422S8.56 23.39 10.86 23.39ZM5.055 8.491c1.15-1.992 1.143-4.15-.017-4.82-1.159-.668-3.031.404-4.181 2.396s-1.143 4.15.016 4.819c1.16.67 3.032-.403 4.182-2.395ZM20.86 17.616c1.15-1.992 1.144-4.15-.015-4.818-1.159-.669-3.03.404-4.18 2.396s-1.144 4.15.015 4.818c1.159.669 3.03-.404 4.18-2.396ZM5.039 20.012c1.16-.67 1.167-2.827.017-4.82-1.15-1.992-3.023-3.064-4.182-2.395-1.16.67-1.167 2.827-.017 4.82 1.15 1.992 3.022 3.064 4.182 2.395ZM20.846 10.886c1.159-.668 1.166-2.826.015-4.818-1.15-1.992-3.021-3.065-4.18-2.396-1.159.67-1.166 2.827-.015 4.819 1.15 1.992 3.021 3.065 4.18 2.396Z" fill="#E6007A"/></g><defs><clipPath id="a"><path fill="#fff" transform="translate(0 .293)" d="M0 0h108v23.099H0z"/></clipPath></defs></svg>
